X: 53
M:6/8
L:1/8
K:D
d/2e/2|fgf edc|fdB BAF|Add dcd|fee e2 d/2e/2|
fgf edc|fdB BAF|Add cde|fdd d2:|
|:A|FAA BAA|dAA BAG|FAd {f}dcd|fee e2 A|

